icons/playright.svg

<svg width="16" height="16" viewBox="0 0 16 16" fill="none" xmlns="http://www.w3.org/2000/svg">
<g clip-path="url(#clip0_826_38)">
<path d="M6.38352 11.4009C6.25854 11.2194 6.14893 11.0282 6.05577 10.8293C6.14801 11.0296 6.25745 11.222 6.38293 11.4044C6.38293 11.4044 6.38352 11.4021 6.38352 11.4009ZM5.96018 10.6106L5.97383 10.6419C5.96671 10.6257 5.95958 10.6089 5.95305 10.5921L5.96018 10.6106ZM5.76483 10.024C5.77552 10.0645 5.78621 10.1056 5.79927 10.1466C5.78799 10.1062 5.77493 10.0651 5.76483 10.024V10.024ZM5.7114 9.81052C5.72624 9.87647 5.74227 9.94185 5.76008 10.0066C5.74267 9.94185 5.72664 9.87647 5.71199 9.81052H5.7114ZM5.60808 11.0931C5.45007 10.721 5.33497 10.3329 5.2649 9.93606L3.95865 10.2965C3.95865 10.2965 4.11837 9.40323 5.15743 8.96586C5.09805 7.55712 5.34327 6.21897 5.78561 4.8999C2.78125 6.49898 0.873532 4.98148 1.00653 5.82325C1.24403 7.94011 2.45765 12.1004 5.84796 11.5652C5.75797 11.4129 5.67785 11.2552 5.60808 11.0931V11.0931ZM2.387 7.52819L4.35527 7.02313C4.2769 8.00606 2.94453 8.32252 2.387 7.52819ZM6.11693 4.71014C6.11396 4.71998 6.11039 4.73039 6.10743 4.74081C6.11099 4.73039 6.11455 4.71998 6.11752 4.70956L6.11693 4.71014ZM6.08249 4.82122L6.10624 4.74081C6.09971 4.76742 6.09021 4.79345 6.08249 4.82122V4.82122ZM6.04805 4.93693C6.05399 4.91668 6.05993 4.89643 6.06646 4.87908C6.05993 4.89412 6.05399 4.91437 6.04686 4.93461L6.04805 4.93693ZM5.72565 6.24384L5.73455 6.19582C5.73099 6.21202 5.72861 6.22822 5.72565 6.24384ZM5.70368 6.36765C5.70368 6.35029 5.70902 6.33352 5.71258 6.31674C5.70902 6.33409 5.70605 6.35145 5.70308 6.36881L5.70368 6.36765ZM5.69061 6.45559L5.70486 6.36938C5.70011 6.39831 5.69477 6.42724 5.69002 6.45674L5.69061 6.45559ZM5.6348 6.81833C5.63896 6.78709 5.64371 6.757 5.64727 6.72634C5.64252 6.75527 5.63955 6.78593 5.6348 6.81833ZM5.6348 6.84031C5.63538 6.833 5.63538 6.82565 5.6348 6.81833C5.63325 6.82521 5.63206 6.83216 5.63124 6.83916L5.6348 6.84031ZM5.61996 6.93404C5.61996 6.92536 5.61996 6.91726 5.61996 6.90916C5.62115 6.91784 5.62174 6.92594 5.61996 6.93404ZM5.6069 7.04396C5.6069 7.02949 5.61046 7.01561 5.61165 7.0023C5.60927 7.01677 5.60927 7.03065 5.6069 7.04454V7.04396ZM5.57186 7.42695C5.57602 7.38761 5.5784 7.34885 5.58137 7.31124C5.57662 7.34885 5.57186 7.38819 5.57186 7.42695ZM5.55583 8.66964C5.55583 8.72403 5.56237 8.77899 5.56652 8.83337C5.55821 8.72808 5.55227 8.6222 5.54811 8.51691C5.55168 8.56609 5.55287 8.617 5.55583 8.66964Z" fill="#E2574C"/>
<path d="M13.9283 5.15215C13.4183 5.23951 12.1975 5.34769 10.6876 4.95602L9.45083 9.58431L7.11502 8.94792L11.6453 10.1819C10.9827 10.757 10.3717 11.0214 9.13673 10.7605L8.57801 12.8554L8.50439 12.8392C11.7653 13.8389 14.0292 9.88862 14.5802 7.59588C14.848 6.62221 14.965 5.88457 14.9958 5.40902C15.0344 4.87156 14.6562 5.02834 13.9283 5.15215ZM12.6749 8.60774L10.6633 8.05004C11.5848 6.7975 13.1493 7.57159 13.2205 8.75932L12.6749 8.60774ZM9.27864 7.60341C9.27864 7.60341 9.27864 7.60341 9.27864 7.60341V7.60341ZM9.22639 7.33554C9.23648 7.37257 9.24479 7.4067 9.25192 7.43794C9.24539 7.4067 9.23708 7.37257 9.22639 7.33554V7.33554ZM9.13436 7.0833C9.15098 7.11975 9.16523 7.15504 9.17829 7.18975C9.16583 7.15504 9.15098 7.11975 9.13436 7.0833ZM6.09139 10.9016C6.07952 10.8779 6.06824 10.8542 6.05696 10.8305C6.14818 11.0303 6.25747 11.2217 6.38352 11.4027V11.4027C6.27359 11.2423 6.17595 11.0743 6.09139 10.8999V10.9016ZM6.11693 4.7113C6.11396 4.72114 6.11039 4.73155 6.10743 4.74196C6.11099 4.73155 6.11455 4.72114 6.11752 4.71072L6.11693 4.7113ZM6.08843 4.80213C6.08843 4.80908 6.08427 4.81544 6.08249 4.82238L6.09496 4.78304C6.09258 4.78825 6.0908 4.79345 6.08843 4.80098V4.80213ZM6.05696 4.90511L6.04805 4.93577C6.05399 4.91553 6.05993 4.89528 6.06646 4.87792C6.06349 4.88428 6.05993 4.89412 6.05696 4.90396V4.90511ZM5.96018 10.6118L5.97383 10.643C5.96671 10.6268 5.95958 10.6101 5.95305 10.5933L5.96018 10.6118ZM5.70368 6.36765C5.70368 6.3503 5.70902 6.33352 5.71258 6.31674C5.70902 6.3341 5.70605 6.35145 5.70308 6.36881L5.70368 6.36765ZM5.69061 6.45559L5.70486 6.36939C5.70011 6.39831 5.69477 6.42724 5.69002 6.45675L5.69061 6.45559ZM5.57186 7.42695C5.57602 7.38761 5.5784 7.34885 5.58137 7.31124C5.57662 7.34885 5.57186 7.38819 5.57186 7.42695ZM5.55583 8.66965C5.55999 8.7275 5.56236 8.78131 5.56771 8.83684C5.55999 8.73039 5.55346 8.62336 5.5493 8.51691C5.55168 8.56609 5.55287 8.617 5.55583 8.66965Z" fill="#2EAD33"/>
<path d="M10.6876 4.95604C9.17651 4.56726 8.14577 3.86261 7.75033 3.53862C7.27533 3.14869 7.02121 2.85942 6.80686 3.07232C5.8729 4.78653 5.45312 6.88256 5.5683 8.83512C5.60496 9.38232 5.71515 9.92246 5.89605 10.4417C6.01712 10.78 6.1815 11.1021 6.3853 11.4004C6.9078 12.1484 7.62089 12.6245 8.58217 12.8565L9.13436 10.7622C7.88274 10.3821 7.39467 9.80591 7.11561 8.95083L9.45142 9.58722L10.6876 4.95604ZM9.27864 7.60573L6.72136 6.89818C7.51402 5.74979 9.16879 6.26469 9.27923 7.60573H9.27864Z" fill="#1D8D22"/>
</g>
<defs>
<clipPath id="clip0_826_38">
<rect width="14" height="10" fill="white" transform="translate(1 3)"/>
</clipPath>
</defs>
</svg>

<svg xmlns="http://www.w3.org/2000/svg" width="16" height="16" fill="none"><g clip-path="url(#a)"><path fill="#E2574C" d="M6.384 11.4a3.998 3.998 0 0 1-.001.004v-.003Zm-.424-.79.014.032a1.252 1.252 0 0 1-.021-.05l.007.019Zm-.195-.586c.01.04.021.082.034.123-.011-.04-.024-.082-.034-.123Zm-.054-.213a4.29 4.29 0 0 0 .001 0Zm-.103 1.282a5.332 5.332 0 0 1-.343-1.157l-1.306.36s.16-.893 1.198-1.33c-.059-1.409.186-2.747.629-4.066-3.005 1.599-4.912.081-4.78.923.238 2.117 1.452 6.277 4.842 5.742-.09-.152-.17-.31-.24-.472ZM2.387 7.528l1.968-.505c-.078.983-1.41 1.3-1.968.505Zm3.73-2.818-.01.03c.004-.01.008-.02.01-.03Zm-.035.111.024-.08c-.006.026-.016.052-.024.08Zm-.034.116.018-.058-.02.056.002.002Zm-.322 1.307.009-.048-.01.048Zm-.022.124c0-.018.005-.034.009-.051l-.01.052v-.001Zm-.013.088.014-.087-.015.088v-.001Zm-.056.362c.004-.03.009-.061.012-.092l-.012.092Zm0 .022v-.022a.201.201 0 0 0-.004.021l.004.001Zm-.015.094v-.025a.07.07 0 0 1 0 .025Zm-.013.11c0-.015.003-.028.005-.042-.003.015-.003.029-.005.043v-.001Zm-.035.383.01-.116a.931.931 0 0 0-.01.116ZM5.556 8.67c0 .054.006.109.01.163a8.086 8.086 0 0 1-.018-.316c.004.05.005.1.008.153Z"/><path fill="#2EAD33" d="M13.928 5.152c-.51.088-1.73.196-3.24-.196L9.45 9.584l-2.336-.636 4.53 1.234c-.662.575-1.273.84-2.508.579l-.559 2.094-.074-.016c3.261 1 5.525-2.95 6.076-5.243.268-.974.385-1.711.416-2.187.038-.537-.34-.38-1.068-.257Zm-1.253 3.456-2.012-.558c.922-1.253 2.486-.478 2.557.71l-.545-.152ZM9.279 7.603Zm-.053-.267Zm-.092-.253Zm-3.043 3.819-.034-.071a3.896 3.896 0 0 1 .034.07Zm.026-6.19-.01.03a.636.636 0 0 0 .01-.031Zm-.029.09c0 .007-.004.013-.006.02l.013-.039a.15.15 0 0 0-.007.018v.001Zm-.031.103-.009.03.018-.057a.213.213 0 0 0-.009.026v.001Zm-.097 5.707.014.031a1.247 1.247 0 0 1-.021-.05l.007.019Zm-.256-4.244c0-.018.005-.034.009-.051a1.609 1.609 0 0 0-.01.052v-.001Zm-.013.088.014-.087-.015.088v-.001Zm-.12.97c.005-.038.007-.077.01-.115a.931.931 0 0 0-.01.116ZM5.557 8.67c.004.057.006.111.012.167a9.632 9.632 0 0 1-.019-.32l.007.153Z"/><path fill="#1D8D22" d="M10.688 4.956C9.177 4.567 8.146 3.863 7.75 3.539c-.475-.39-.729-.68-.943-.467-.934 1.715-1.354 3.81-1.239 5.763.037.547.147 1.087.328 1.607.121.338.285.66.49.958.522.748 1.235 1.224 2.196 1.457l.552-2.095c-1.251-.38-1.74-.956-2.018-1.811l2.335.636 1.237-4.631Zm-1.41 2.65-2.557-.708c.793-1.148 2.448-.633 2.558.708Z"/></g><defs><clipPath id="a"><path fill="#fff" d="M1 3h14v10H1z"/></clipPath></defs></svg>
